images/ui/wildflowers-logo.svg

<svg class="wildflowers-logo" width="296px" height="123px" viewBox="0 0 296 123" version="1.1" xmlns="http://www.w3.org/2000/svg" xmlns:xlink="http://www.w3.org/1999/xlink">
    <g id="Page-1" stroke="none" stroke-width="1" fill="none" fill-rule="evenodd">
        <g id="Desktop-HD-Copy-19" transform="translate(-572.000000, -25.000000)" fill="#000000">
            <g id="Page-1" transform="translate(572.000000, 25.000000)">
                <path d="M20.4629029,98.22784 C21.3187657,98.22784 21.9412114,98.3038933 22.4080457,98.5320533 C22.9526857,98.8362667 23.41952,99.2165333 23.8863543,99.82496 L23.8863543,88.64512 C22.9526857,89.6338133 22.0968229,90.01408 20.4629029,90.01408 L9.88132571,90.01408 L9.88132571,75.1076267 L24.1197714,75.1076267 C26.9207771,75.1076267 28.9437257,75.2597333 30.1108114,77.1610667 L30.1108114,67.3501867 L0,67.3501867 C1.16708571,68.2628267 1.47830857,69.0994133 1.47830857,70.39232 L1.47830857,118.458027 C1.47830857,119.750933 1.16708571,120.58752 0,121.50016 L11.3596343,121.50016 C10.1925486,120.58752 9.88132571,119.750933 9.88132571,118.458027 L9.88132571,98.22784 L20.4629029,98.22784 Z M63.0682971,111.765333 C61.9012114,113.590613 59.8004571,113.74272 57.7775086,113.74272 L41.9051429,113.74272 L41.9051429,70.39232 C41.9051429,69.0994133 42.2163657,68.2628267 43.3834514,67.3501867 L32.0238171,67.3501867 C33.1909029,68.2628267 33.5021257,69.0994133 33.5021257,70.39232 L33.5021257,118.458027 C33.5021257,119.750933 33.1909029,120.58752 32.0238171,121.50016 L63.0682971,121.50016 L63.0682971,111.765333 Z M90.6335086,74.3470933 C102.304366,74.3470933 111.641051,83.2453333 111.641051,94.4251733 C111.641051,105.605013 102.304366,114.503253 90.6335086,114.503253 C78.9626514,114.503253 69.6259657,105.605013 69.6259657,94.4251733 C69.6259657,83.2453333 78.9626514,74.3470933 90.6335086,74.3470933 L90.6335086,74.3470933 Z M120.19968,94.4251733 C120.19968,78.7581867 106.972709,66.1333333 90.6335086,66.1333333 C74.2165029,66.1333333 61.0673371,78.7581867 61.0673371,94.4251733 C61.0673371,110.09216 74.2165029,122.717013 90.6335086,122.717013 C106.972709,122.717013 120.19968,110.09216 120.19968,94.4251733 L120.19968,94.4251733 Z M116.11488,67.3501867 C116.970743,68.2628267 117.593189,69.3275733 118.137829,70.5444267 L141.868571,122.717013 L142.024183,122.717013 L151.983314,99.2925867 L152.138926,99.2925867 L161.86464,122.717013 L162.020251,122.717013 L184.117074,71.6852267 C184.661714,70.39232 185.8288,68.4149333 186.995886,67.3501867 L174.39136,67.3501867 C174.936,68.0346667 175.247223,68.4909867 175.247223,69.3275733 C175.247223,69.6317867 175.091611,70.5444267 174.624777,71.6852267 L162.175863,104.007893 L162.020251,104.007893 L148.715474,71.8373333 C148.326446,70.9246933 147.704,69.936 147.704,69.0994133 C147.704,68.2628267 148.482057,67.7304533 149.182309,67.3501867 L135.799726,67.3501867 C136.655589,67.9586133 137.589257,69.0994133 137.978286,70.0120533 L147.548389,90.3943467 L142.80224,104.16 L142.646629,104.16 L128.252571,70.7725867 C128.019154,70.2402133 127.630126,69.6317867 127.630126,68.7952 C127.630126,68.4149333 128.252571,67.8065067 128.797211,67.3501867 L116.11488,67.3501867 Z M189.812114,118.458027 C189.812114,119.750933 189.500891,120.58752 188.333806,121.50016 L220.9344,121.50016 L220.9344,111.68928 C219.767314,113.590613 217.744366,113.74272 214.94336,113.74272 L198.215131,113.74272 L198.215131,98.22784 L210.664046,98.22784 C211.519909,98.22784 212.142354,98.3038933 212.609189,98.5320533 C213.153829,98.8362667 213.620663,99.2165333 214.087497,99.82496 L214.087497,88.64512 C213.153829,89.6338133 212.297966,90.01408 210.664046,90.01408 L198.215131,90.01408 L198.215131,75.1076267 L214.94336,75.1076267 C217.744366,75.1076267 219.767314,75.2597333 220.9344,77.1610667 L220.9344,67.3501867 L188.333806,67.3501867 C189.500891,68.2628267 189.812114,69.0994133 189.812114,70.39232 L189.812114,118.458027 Z M234.689097,98.68416 C243.947977,99.2925867 255.074194,107.5824 255.074194,117.241173 C255.074194,118.838293 254.918583,120.739627 253.362469,121.50016 L266.122606,121.50016 C265.266743,121.119893 264.799909,120.435413 264.644297,119.522773 C263.010377,109.787947 257.797394,97.54336 245.737509,95.8701867 L245.737509,95.71808 C252.740023,94.80544 256.085669,89.4056533 256.085669,83.0171733 C256.085669,73.6626133 248.849737,66.1333333 238.890606,66.1333333 C235.078126,66.1333333 230.721006,67.5022933 229.320503,67.5022933 C227.997806,67.5022933 227.141943,67.3501867 226.28608,66.1333333 L226.28608,118.458027 C226.28608,119.750933 225.974857,120.58752 224.807771,121.50016 L236.167406,121.50016 C235.00032,120.58752 234.689097,119.750933 234.689097,118.458027 L234.689097,98.68416 Z M234.689097,74.3470933 L238.890606,74.3470933 C244.726034,74.3470933 247.52704,77.46528 247.52704,82.3326933 C247.52704,88.1127467 243.16992,91.6872533 238.112549,91.6872533 L234.689097,91.6872533 L234.689097,74.3470933 Z M266.427063,122.717013 C266.893897,122.032533 267.905371,121.348053 268.527817,121.348053 C271.484434,121.348053 274.518857,122.717013 278.331337,122.717013 C288.757303,122.717013 295.837623,114.731413 295.837623,105.376853 C295.837623,87.8085333 275.685943,87.96064 275.685943,78.9863467 C275.685943,76.4005333 278.564754,73.8907733 281.287954,73.8907733 C285.022629,73.8907733 287.745829,74.95552 289.846583,77.9976533 L289.846583,66.2093867 C289.379749,66.8938667 288.44608,67.19808 287.668023,67.19808 C286.656549,67.19808 285.645074,66.8938667 284.555794,66.6657067 C283.466514,66.4375467 282.299429,66.1333333 280.976731,66.1333333 C273.273966,66.1333333 266.971703,71.30496 266.971703,79.4426667 C266.971703,93.8928 287.123383,93.66464 287.123383,105.605013 C287.123383,111.156907 283.388709,114.959573 277.55328,114.959573 C272.807131,114.959573 269.617097,113.666667 266.427063,110.32032 L266.427063,122.717013 Z" id="Fill-1"></path>
                <path d="M61.2474743,1.21685333 C62.1033371,2.12949333 62.7257829,3.19424 63.2704229,4.41109333 L87.0011657,56.58368 L87.1567771,56.58368 L97.1159086,33.1592533 L97.27152,33.1592533 L106.997234,56.58368 L107.152846,56.58368 L129.249669,5.55189333 C129.794309,4.25898667 130.961394,2.2816 132.12848,1.21685333 L119.523954,1.21685333 C120.068594,1.90133333 120.379817,2.35765333 120.379817,3.19424 C120.379817,3.49845333 120.224206,4.41109333 119.757371,5.55189333 L107.308457,37.87456 L107.152846,37.87456 L93.8480686,5.704 C93.45904,4.79136 92.8365943,3.80266667 92.8365943,2.96608 C92.8365943,2.12949333 93.6146514,1.59712 94.3149029,1.21685333 L80.93232,1.21685333 C81.7881829,1.82528 82.7218514,2.96608 83.11088,3.87872 L92.6809829,24.2610133 L87.9348343,38.0266667 L87.7792229,38.0266667 L73.3851657,4.63925333 C73.1517486,4.10688 72.76272,3.49845333 72.76272,2.66186667 C72.76272,2.2816 73.3851657,1.67317333 73.9298057,1.21685333 L61.2474743,1.21685333 Z M135.457211,52.3246933 C135.457211,53.6176 135.145989,54.4541867 133.978903,55.3668267 L145.338537,55.3668267 C144.171451,54.4541867 143.860229,53.6176 143.860229,52.3246933 L143.860229,4.25898667 C143.860229,2.96608 144.171451,2.12949333 145.338537,1.21685333 L133.978903,1.21685333 C135.145989,2.12949333 135.457211,2.96608 135.457211,4.25898667 L135.457211,52.3246933 Z M182.577029,45.632 C181.409943,47.45728 179.309189,47.6093867 177.28624,47.6093867 L161.413874,47.6093867 L161.413874,4.25898667 C161.413874,2.96608 161.725097,2.12949333 162.892183,1.21685333 L151.532549,1.21685333 C152.699634,2.12949333 153.010857,2.96608 153.010857,4.25898667 L153.010857,52.3246933 C153.010857,53.6176 152.699634,54.4541867 151.532549,55.3668267 L182.577029,55.3668267 L182.577029,45.632 Z M193.818263,8.21376 L200.120526,8.21376 C211.246743,8.21376 220.816846,17.4922667 220.816846,27.7594667 C220.816846,38.55904 210.93552,47.1530667 201.287611,47.1530667 L193.818263,47.1530667 L193.818263,8.21376 Z M200.431749,55.3668267 C216.148503,55.3668267 229.375474,43.2743467 229.375474,28.29184 C229.375474,12.77696 215.915086,0 199.731497,0 C197.241714,0 194.59632,0.22816 192.41776,0.532373333 C190.317006,0.760533333 188.60528,1.06474667 187.827223,1.06474667 C187.204777,1.06474667 186.737943,0.988693333 186.42672,0.836586667 C186.037691,0.608426667 185.804274,0.380266667 185.415246,0 L185.415246,52.3246933 C185.415246,53.6176 185.104023,54.4541867 183.936937,55.3668267 L200.431749,55.3668267 Z" id="Fill-3"></path>
            </g>
        </g>
    </g>
</svg>

<svg class="wildflowers-logo" width="296" height="123" viewBox="0 0 296 123" xmlns="http://www.w3.org/2000/svg"><g fill="#000" fill-rule="evenodd"><path d="M20.463 98.228c.856 0 1.478.076 1.945.304a4.628 4.628 0 0 1 1.478 1.293v-11.18c-.933.989-1.79 1.37-3.423 1.37H9.88V75.107H24.12c2.8 0 4.824.152 5.99 2.053v-9.81H0c1.167.912 1.478 1.748 1.478 3.041v48.066c0 1.293-.31 2.13-1.478 3.042h11.36c-1.167-.912-1.479-1.75-1.479-3.042v-20.23h10.582zm42.605 13.537c-1.167 1.826-3.268 1.978-5.29 1.978H41.905v-43.35c0-1.294.311-2.13 1.478-3.043h-11.36c1.168.913 1.48 1.75 1.48 3.042v48.066c0 1.293-.312 2.13-1.48 3.042h31.045v-9.735zm27.566-37.418c11.67 0 21.007 8.898 21.007 20.078s-9.337 20.078-21.007 20.078c-11.671 0-21.008-8.898-21.008-20.078s9.337-20.078 21.008-20.078zM120.2 94.425c0-15.667-13.227-28.292-29.566-28.292-16.417 0-29.567 12.625-29.567 28.292 0 15.667 13.15 28.292 29.567 28.292 16.339 0 29.566-12.625 29.566-28.292zm-4.085-27.075c.856.913 1.478 1.978 2.023 3.194l23.73 52.173h.156l9.96-23.424h.155l9.726 23.424h.155l22.097-51.032c.545-1.293 1.712-3.27 2.879-4.335H174.39c.545.685.856 1.141.856 1.978 0 .304-.155 1.216-.622 2.357l-12.45 32.323h-.155l-13.305-32.17c-.389-.913-1.011-1.902-1.011-2.739 0-.836.778-1.369 1.478-1.749H135.8c.856.609 1.79 1.75 2.178 2.662l9.57 20.382-4.746 13.766h-.155l-14.394-33.387c-.234-.533-.623-1.141-.623-1.978 0-.38.623-.988 1.167-1.445h-12.682zm73.697 51.108c0 1.293-.311 2.13-1.478 3.042h32.6v-9.81c-1.167 1.9-3.19 2.053-5.99 2.053h-16.729V98.228h12.449c.856 0 1.478.076 1.945.304a4.628 4.628 0 0 1 1.478 1.293v-11.18c-.933.989-1.789 1.37-3.423 1.37h-12.449V75.107h16.728c2.801 0 4.824.152 5.991 2.053v-9.81h-32.6c1.167.912 1.478 1.748 1.478 3.041v48.066zm44.877-19.774c9.259.609 20.385 8.898 20.385 18.557 0 1.597-.155 3.499-1.712 4.26h12.76c-.855-.381-1.322-1.066-1.478-1.978-1.634-9.735-6.847-21.98-18.906-23.653v-.152c7.002-.913 10.348-6.312 10.348-12.7 0-9.355-7.236-16.885-17.195-16.885-3.813 0-8.17 1.37-9.57 1.37-1.323 0-2.18-.153-3.035-1.37v52.325c0 1.293-.311 2.13-1.478 3.042h11.36c-1.168-.912-1.479-1.75-1.479-3.042V98.684zm0-24.337h4.202c5.835 0 8.636 3.118 8.636 7.986 0 5.78-4.357 9.354-9.414 9.354h-3.424v-17.34zm31.738 48.37c.467-.684 1.478-1.369 2.1-1.369 2.957 0 5.992 1.369 9.804 1.369 10.426 0 17.507-7.986 17.507-17.34 0-17.568-20.152-17.416-20.152-26.39 0-2.586 2.879-5.096 5.602-5.096 3.735 0 6.458 1.065 8.559 4.107V66.209c-.467.685-1.4.99-2.179.99-1.011 0-2.023-.305-3.112-.533-1.09-.228-2.257-.533-3.58-.533-7.702 0-14.004 5.172-14.004 13.31 0 14.45 20.151 14.222 20.151 26.162 0 5.552-3.734 9.355-9.57 9.355-4.746 0-7.936-1.293-11.126-4.64v12.397zM61.247 1.217c.856.912 1.479 1.977 2.023 3.194l23.731 52.173h.156l9.959-23.425h.156l9.725 23.425h.156L129.25 5.552c.544-1.293 1.711-3.27 2.878-4.335h-12.604c.545.684.856 1.14.856 1.977 0 .304-.156 1.217-.623 2.358l-12.449 32.323h-.155L93.848 5.704c-.389-.913-1.011-1.901-1.011-2.738s.778-1.369 1.478-1.75H80.932c.856.61 1.79 1.75 2.179 2.663l9.57 20.382-4.746 13.766h-.156L73.385 4.639c-.233-.532-.622-1.14-.622-1.977 0-.38.622-.989 1.167-1.445H61.247zm74.21 51.108c0 1.293-.311 2.13-1.478 3.042h11.36c-1.168-.913-1.479-1.75-1.479-3.042V4.259c0-1.293.311-2.13 1.479-3.042h-11.36c1.167.912 1.478 1.75 1.478 3.042v48.066zm47.12-6.693c-1.167 1.825-3.268 1.977-5.29 1.977h-15.873V4.26c0-1.293.311-2.13 1.478-3.042h-11.36c1.168.912 1.479 1.75 1.479 3.042v48.066c0 1.293-.311 2.13-1.478 3.042h31.044v-9.735zm11.241-37.418h6.303c11.126 0 20.696 9.278 20.696 19.545 0 10.8-9.881 19.394-19.53 19.394h-7.469V8.213zm6.614 47.153c15.717 0 28.943-12.093 28.943-27.075C229.375 12.777 215.915 0 199.731 0c-2.49 0-5.135.228-7.313.532-2.101.229-3.813.533-4.59.533-.623 0-1.09-.076-1.401-.228-.39-.229-.623-.457-1.012-.837v52.325c0 1.293-.311 2.13-1.478 3.042h16.495z"/></g></svg>
